Catalina-light/actions/16/window-next.svg

<svg xmlns="http://www.w3.org/2000/svg" width="16" height="16" viewBox="0 0 16 16">
 <defs>
  <style id="current-color-scheme" type="text/css">
   .ColorScheme-Text { color:#5c616c; } .ColorScheme-Highlight { color:#5294e2; }
  </style>
 </defs>
 <path style="fill:currentColor" class="ColorScheme-Text" d="M 2 1 C 2 1 1.9237594 1.0041375 1.8183594 1.0234375 C 1.6141594 1.0536375 1.4597031 1.1268625 1.3457031 1.2265625 C 1.3236031 1.2434625 1.30225 1.26165 1.28125 1.28125 C 1.26165 1.30225 1.2434625 1.3236031 1.2265625 1.3457031 C 1.1268625 1.4597031 1.0536375 1.6141594 1.0234375 1.8183594 C 1.0041375 1.9237594 1 2 1 2 L 1 14 C 1 15 2 15 2 15 L 14 15 C 14 15 15 15 15 14 L 15 2 C 15 2 14.995563 1.9237594 14.976562 1.8183594 C 14.945562 1.6141594 14.873437 1.4597031 14.773438 1.3457031 C 14.756438 1.3236031 14.73775 1.30225 14.71875 1.28125 C 14.69775 1.26165 14.676297 1.2434625 14.654297 1.2265625 C 14.540297 1.1268625 14.385641 1.0536375 14.181641 1.0234375 C 14.075641 1.0041375 14 1 14 1 L 2 1 z M 3 6 L 13 6 L 13 13 L 3 13 L 3 6 z M 8 7 L 8 9 L 5 9 L 5 10 L 8 10 L 8 12 L 11 9.5 L 8 7 z"/>
</svg>

<svg width="16" height="16" viewBox="0 0 16 16" xmlns="http://www.w3.org/2000/svg">
<defs>
<style id="current-color-scheme" type="text/css">.ColorScheme-Text { color:#5c616c; } .ColorScheme-Highlight { color:#5294e2; }</style>
</defs>
<path class="ColorScheme-Text" d="m2 1s-0.076241 0.0041375-0.18164 0.023438c-0.2042 0.0302-0.35866 0.10342-0.47266 0.20312-0.0221 0.0169-0.043453 0.035088-0.064453 0.054688-0.0196 0.021-0.037788 0.042353-0.054688 0.064453-0.0997 0.114-0.17292 0.26846-0.20312 0.47266-0.0193 0.1054-0.023438 0.18164-0.023438 0.18164v12c0 1 1 1 1 1h12s1 0 1-1v-12s-0.004437-0.076241-0.023438-0.18164c-0.031-0.2042-0.10312-0.35866-0.20312-0.47266-0.017-0.0221-0.035688-0.043453-0.054688-0.064453-0.021-0.0196-0.042453-0.037788-0.064453-0.054688-0.114-0.0997-0.26866-0.17292-0.47266-0.20312-0.106-0.0193-0.18164-0.023438-0.18164-0.023438h-12zm1 5h10v7h-10v-7zm5 1v2h-3v1h3v2l3-2.5-3-2.5z" fill="#363636"/>
</svg>
